svgs/thin/tv.svg

<svg xmlns="http://www.w3.org/2000/svg" viewBox="0 0 640 512"><!-- Font Awesome Pro 6.0.0-alpha2 by @fontawesome - https://fontawesome.com License - https://fontawesome.com/license (Commercial License) --><path d="M592 0H48C21.5 0 0 21.5 0 48V400C0 426.5 21.5 448 48 448H592C618.5 448 640 426.5 640 400V48C640 21.5 618.5 0 592 0ZM624 400C624 417.645 609.645 432 592 432H48C30.355 432 16 417.645 16 400V48C16 30.355 30.355 16 48 16H592C609.645 16 624 30.355 624 48V400ZM64 384H576V64H64V384ZM80 80H560V368H80V80ZM536 496H104C99.594 496 96 499.578 96 504S99.594 512 104 512H536C540.406 512 544 508.422 544 504S540.406 496 536 496Z"/></svg>

<svg xmlns="http://www.w3.org/2000/svg" viewBox="0 0 640 512"><!--! Font Awesome Pro 6.3.0 by @fontawesome - https://fontawesome.com License - https://fontawesome.com/license (Commercial License) Copyright 2023 Fonticons, Inc. --><path d="M592 0h-544C21.5 0 0 21.5 0 48v352C0 426.5 21.5 448 48 448h544c26.5 0 48-21.5 48-48v-352C640 21.5 618.5 0 592 0zM624 400c0 17.64-14.36 32-32 32h-544c-17.64 0-32-14.36-32-32v-352c0-17.64 14.36-32 32-32h544c17.64 0 32 14.36 32 32V400zM64 384h512V64H64V384zM80 80h480v288h-480V80zM536 496H104C99.59 496 96 499.6 96 504S99.59 512 104 512h432c4.406 0 8-3.578 8-8S540.4 496 536 496z"/></svg>
